assets/landing/frontend_features/dark/responsive.svg

<svg xmlns="http://www.w3.org/2000/svg" width="326" height="304" fill="none" viewBox="0 0 326 304"><path fill="#27282B" fill-rule="evenodd" d="M270 144H166v-1h104zm0-21H166v-1h104zm0 42H166v-1h104z" clip-rule="evenodd"/><path stroke="#303236" stroke-linecap="round" stroke-width="3" d="M268.5 110c-11.174 0-10.737 37.782-18.849 37.782-4.158 0-6.826-7.841-11.218-7.841-6.636 0-11.096 16.572-17.893 12.871-4.606-2.508-7.644-14.524-12.883-10.574-7.248 5.464-8.072 42.388-18.685 29.386-5.331-6.532-14.114-16.046-20.972-15.271"/><rect width="104" height="8" x="56" y="114" fill="#303236" rx="4"/><rect width="104" height="8" x="56" y="130" fill="#303236" rx="4"/><rect width="48" height="24" x="56" y="154" fill="#27282B" rx="8"/><rect width="48" height="24" x="112" y="154" fill="#27282B" rx="8"/><ellipse cx="163" cy="150" fill="url(#a)" rx="108" ry="150"/><path stroke="url(#b)" d="M40.5 303V63"/><path stroke="url(#c)" d="M285.5 303V63"/><path fill="#6E56CF" fill-rule="evenodd" d="M124 105.025V106h-1v-.975zm0-3.9v1.95h-1v-1.95zm0-3.9v1.95h-1v-1.95zm0-3.9v1.95h-1v-1.95zm0-3.9v1.95h-1v-1.95zm0-3.9v1.95h-1v-1.95zm0-3.9v1.95h-1v-1.95zm0-3.9v1.95h-1v-1.95zm0-3.9v1.95h-1v-1.95zm0-3.9v1.95h-1v-1.95zm79 35.1V106h-1v-.975zm0-3.9v1.95h-1v-1.95zm0-3.9v1.95h-1v-1.95zm0-3.9v1.95h-1v-1.95zm0-3.9v1.95h-1v-1.95zm0-3.9v1.95h-1v-1.95zm0-3.9v1.95h-1v-1.95zm0-3.9v1.95h-1v-1.95zm0-3.9v1.95h-1v-1.95zm0-3.9v1.95h-1v-1.95z" clip-rule="evenodd" opacity=".72"/><path fill="#303236" fill-rule="evenodd" d="M206.95 65H205v-1h1.95zm3.9 0h-1.95v-1h1.95zm3.9 0h-1.95v-1h1.95zm3.9 0h-1.95v-1h1.95zm3.9 0h-1.95v-1h1.95zm3.9 0h-1.95v-1h1.95zm3.9 0h-1.95v-1h1.95zm3.9 0h-1.95v-1h1.95zm3.9 0h-1.95v-1h1.95zm3.9 0h-1.95v-1h1.95zm3.9 0H244v-1h1.95zm3.9 0h-1.95v-1h1.95zm3.9 0h-1.95v-1h1.95zm3.9 0h-1.95v-1h1.95zm3.9 0h-1.95v-1h1.95zm3.9 0h-1.95v-1h1.95zm3.9 0h-1.95v-1h1.95zm3.9 0h-1.95v-1h1.95zm3.75 0h-1.8v-1h1.8zM50.95 65H49v-1h1.95zm3.9 0H52.9v-1h1.95zm3.9 0H56.8v-1h1.95zm3.9 0H60.7v-1h1.95zm3.9 0H64.6v-1h1.95zm3.9 0H68.5v-1h1.95zm3.9 0H72.4v-1h1.95zm3.9 0H76.3v-1h1.95zm3.9 0H80.2v-1h1.95zm3.9 0H84.1v-1h1.95zm3.9 0H88v-1h1.95zm3.9 0H91.9v-1h1.95zm3.9 0H95.8v-1h1.95zm3.9 0H99.7v-1h1.95zm3.9 0h-1.95v-1h1.95zm3.9 0h-1.95v-1h1.95zm3.9 0h-1.95v-1h1.95zm3.9 0h-1.95v-1h1.95zm3.75 0h-1.8v-1h1.8z" clip-rule="evenodd"/><path fill="#6E56CF" fill-rule="evenodd" d="M134 65h-2v-1h2zm4 0h-2v-1h2zm4 0h-2v-1h2zm4 0h-2v-1h2zm4 0h-2v-1h2zm4 0h-2v-1h2zm4 0h-2v-1h2zm4 0h-2v-1h2zm4 0h-2v-1h2zm4 0h-2v-1h2zm4 0h-2v-1h2zm4 0h-2v-1h2zm4 0h-2v-1h2zm4 0h-2v-1h2zm4 0h-2v-1h2zm4 0h-2v-1h2z" clip-rule="evenodd" opacity=".72"/><path fill="#6E56CF" d="m130 64.5-7-3.5v7z"/><path fill="#303236" d="m279 64.5 7-3.5v7z"/><path fill="#6E56CF" d="m196 64.5 7-3.5v7z"/><path fill="#303236" d="M47 64.5 40 61v7z"/><g filter="url(#d)"><rect width="80" height="184" x="123" y="88" fill="#1A1B1D" fill-opacity=".48" rx="10"/><rect width="79" height="183" x="123.5" y="88.5" stroke="#27282B" rx="9.5"/><rect width="64" height="4" x="131" y="148" fill="#6E56CF" rx="2"/><rect width="32" height="4" x="131" y="156" fill="#6E56CF" rx="2"/><rect width="64" height="12" x="131" y="168" fill="#6E56CF" rx="4"/><rect width="64" height="12" x="131" y="184" fill="#6E56CF" rx="4"/><g clip-path="url(#e)"><path fill="#6E56CF" fill-rule="evenodd" d="M195 114h-64v-1h64zm0-9h-64v-1h64zm0 18h-64v-1h64z" clip-rule="evenodd" opacity=".36"/><path stroke="#6E56CF" stroke-linecap="round" stroke-width="1.5" d="M132 131c4.413 0 6.558-4.956 9.965-9.851 3.443-4.947 9.628 1.989 13.02 6.375 5.307 6.862 5.719-11.626 9.343-14.51 2.62-2.084 4.138 4.258 6.441 5.581 3.399 1.953 5.629-6.793 8.947-6.793 2.196 0 3.53 4.139 5.609 4.139 4.056 0 3.088-18.941 8.675-18.941"/></g></g><path fill="url(#f)" d="M0 0h326v168H0z" transform="translate(0 136)"/><defs><linearGradient id="b" x1="41.5" x2="41.5" y1="63" y2="303" gradientUnits="userSpaceOnUse"><stop offset=".05" stop-color="#1A1B1D"/><stop offset=".15" stop-color="#222326"/></linearGradient><linearGradient id="c" x1="286.5" x2="286.5" y1="63" y2="303" gradientUnits="userSpaceOnUse"><stop offset=".05" stop-color="#1A1B1D"/><stop offset=".15" stop-color="#222326"/></linearGradient><linearGradient id="f" x1="163" x2="163" y1="0" y2="168" gradientUnits="userSpaceOnUse"><stop stop-color="#1A1B1D" stop-opacity="0"/><stop offset=".724" stop-color="#1A1B1D"/></linearGradient><radialGradient id="a" cx="0" cy="0" r="1" gradientTransform="matrix(0 150 -108 0 163 150)" gradientUnits="userSpaceOnUse"><stop stop-color="#261958"/><stop offset="1" stop-color="#1A1B1D" stop-opacity="0"/></radialGradient><clipPath id="e"><path fill="#fff" d="M131 96h64v36h-64z"/></clipPath><filter id="d" width="104" height="208" x="111" y="76" color-interpolation-filters="sRGB" filterUnits="userSpaceOnUse"><feFlood flood-opacity="0" result="BackgroundImageFix"/><feGaussianBlur in="BackgroundImageFix" stdDeviation="6"/><feComposite in2="SourceAlpha" operator="in" result="effect1_backgroundBlur_10609_3335"/><feBlend in="SourceGraphic" in2="effect1_backgroundBlur_10609_3335" result="shape"/></filter></defs></svg>

<svg width="326" height="304" viewBox="0 0 326 304" fill="none" xmlns="http://www.w3.org/2000/svg">
<path fill-rule="evenodd" clip-rule="evenodd" d="M270 144H166V143H270V144Z" fill="#27282B"/>
<path fill-rule="evenodd" clip-rule="evenodd" d="M270 123H166V122H270V123Z" fill="#27282B"/>
<path fill-rule="evenodd" clip-rule="evenodd" d="M270 165H166V164H270V165Z" fill="#27282B"/>
<path d="M268.5 110C257.326 110 257.763 147.782 249.651 147.782C245.493 147.782 242.825 139.941 238.433 139.941C231.797 139.941 227.337 156.513 220.54 152.812C215.934 150.304 212.896 138.288 207.657 142.238C200.409 147.702 199.585 184.626 188.972 171.624C183.641 165.092 174.858 155.578 168 156.353" stroke="#303236" stroke-width="3" stroke-linecap="round"/>
<rect x="56" y="114" width="104" height="8" rx="4" fill="#303236"/>
<rect x="56" y="130" width="104" height="8" rx="4" fill="#303236"/>
<rect x="56" y="154" width="48" height="24" rx="8" fill="#27282B"/>
<rect x="112" y="154" width="48" height="24" rx="8" fill="#27282B"/>
<ellipse cx="163" cy="150" rx="108" ry="150" fill="url(#paint0_radial_10609_3335)"/>
<line x1="40.5" y1="303" x2="40.5" y2="63" stroke="url(#paint1_linear_10609_3335)"/>
<line x1="285.5" y1="303" x2="285.5" y2="63" stroke="url(#paint2_linear_10609_3335)"/>
<path opacity="0.72" fill-rule="evenodd" clip-rule="evenodd" d="M124 105.025L124 106L123 106L123 105.025L124 105.025ZM124 101.125L124 103.075L123 103.075L123 101.125L124 101.125ZM124 97.225L124 99.175L123 99.175L123 97.225L124 97.225ZM124 93.325L124 95.275L123 95.275L123 93.325L124 93.325ZM124 89.425L124 91.375L123 91.375L123 89.425L124 89.425ZM124 85.525L124 87.475L123 87.475L123 85.525L124 85.525ZM124 81.625L124 83.575L123 83.575L123 81.625L124 81.625ZM124 77.725L124 79.675L123 79.675L123 77.725L124 77.725ZM124 73.825L124 75.775L123 75.775L123 73.825L124 73.825ZM124 69.925L124 71.875L123 71.875L123 69.925L124 69.925Z" fill="#6E56CF"/>
<path opacity="0.72" fill-rule="evenodd" clip-rule="evenodd" d="M203 105.025L203 106L202 106L202 105.025L203 105.025ZM203 101.125L203 103.075L202 103.075L202 101.125L203 101.125ZM203 97.225L203 99.175L202 99.175L202 97.225L203 97.225ZM203 93.325L203 95.275L202 95.275L202 93.325L203 93.325ZM203 89.425L203 91.375L202 91.375L202 89.425L203 89.425ZM203 85.525L203 87.475L202 87.475L202 85.525L203 85.525ZM203 81.625L203 83.575L202 83.575L202 81.625L203 81.625ZM203 77.725L203 79.675L202 79.675L202 77.725L203 77.725ZM203 73.825L203 75.775L202 75.775L202 73.825L203 73.825ZM203 69.925L203 71.875L202 71.875L202 69.925L203 69.925Z" fill="#6E56CF"/>
<path fill-rule="evenodd" clip-rule="evenodd" d="M206.95 65H205V64H206.95V65ZM210.85 65H208.9V64H210.85V65ZM214.75 65H212.8V64H214.75V65ZM218.65 65H216.7V64H218.65V65ZM222.55 65H220.6V64H222.55V65ZM226.45 65H224.5V64H226.45V65ZM230.35 65H228.4V64H230.35V65ZM234.25 65L232.3 65V64H234.25V65ZM238.15 65H236.2V64H238.15V65ZM242.05 65H240.1V64H242.05V65ZM245.95 65H244V64H245.95V65ZM249.85 65H247.9V64L249.85 64V65ZM253.75 65H251.8V64H253.75V65ZM257.65 65H255.7V64H257.65V65ZM261.55 65H259.6V64H261.55V65ZM265.45 65H263.5V64H265.45V65ZM269.35 65H267.4V64H269.35V65ZM273.25 65H271.3V64H273.25V65ZM277 65H275.2V64H277V65Z" fill="#303236"/>
<path fill-rule="evenodd" clip-rule="evenodd" d="M50.95 65H49V64H50.95V65ZM54.85 65H52.9V64H54.85V65ZM58.75 65H56.8V64H58.75V65ZM62.65 65H60.7V64H62.65V65ZM66.55 65H64.6V64H66.55V65ZM70.45 65H68.5V64H70.45V65ZM74.35 65H72.4V64H74.35V65ZM78.25 65L76.3 65V64H78.25V65ZM82.15 65H80.2V64H82.15V65ZM86.05 65H84.1V64H86.05V65ZM89.95 65H88V64H89.95V65ZM93.85 65H91.9V64L93.85 64V65ZM97.75 65H95.8V64H97.75V65ZM101.65 65H99.7V64H101.65V65ZM105.55 65H103.6V64H105.55V65ZM109.45 65H107.5V64H109.45V65ZM113.35 65H111.4V64H113.35V65ZM117.25 65H115.3V64H117.25V65ZM121 65H119.2V64H121V65Z" fill="#303236"/>
<path opacity="0.72" fill-rule="evenodd" clip-rule="evenodd" d="M134 65L132 65L132 64L134 64L134 65ZM138 65L136 65L136 64L138 64L138 65ZM142 65L140 65L140 64L142 64L142 65ZM146 65L144 65L144 64L146 64L146 65ZM150 65L148 65L148 64L150 64L150 65ZM154 65L152 65L152 64L154 64L154 65ZM158 65L156 65L156 64L158 64L158 65ZM162 65L160 65L160 64L162 64L162 65ZM166 65L164 65L164 64L166 64L166 65ZM170 65L168 65L168 64L170 64L170 65ZM174 65L172 65L172 64L174 64L174 65ZM178 65L176 65L176 64L178 64L178 65ZM182 65L180 65L180 64L182 64L182 65ZM186 65L184 65L184 64L186 64L186 65ZM190 65L188 65L188 64L190 64L190 65ZM194 65L192 65L192 64L194 64L194 65Z" fill="#6E56CF"/>
<path d="M130 64.5L123 61V68L130 64.5Z" fill="#6E56CF"/>
<path d="M279 64.5L286 61V68L279 64.5Z" fill="#303236"/>
<path d="M196 64.5L203 61V68L196 64.5Z" fill="#6E56CF"/>
<path d="M47 64.5L40 61V68L47 64.5Z" fill="#303236"/>
<g filter="url(#filter0_b_10609_3335)">
<rect x="123" y="88" width="80" height="184" rx="10" fill="#1A1B1D" fill-opacity="0.48"/>
<rect x="123.5" y="88.5" width="79" height="183" rx="9.5" stroke="#27282B"/>
<rect x="131" y="148" width="64" height="4" rx="2" fill="#6E56CF"/>
<rect x="131" y="156" width="32" height="4" rx="2" fill="#6E56CF"/>
<rect x="131" y="168" width="64" height="12" rx="4" fill="#6E56CF"/>
<rect x="131" y="184" width="64" height="12" rx="4" fill="#6E56CF"/>
<g clip-path="url(#clip0_10609_3335)">
<path opacity="0.36" fill-rule="evenodd" clip-rule="evenodd" d="M195 114H131V113H195V114Z" fill="#6E56CF"/>
<path opacity="0.36" fill-rule="evenodd" clip-rule="evenodd" d="M195 105H131V104H195V105Z" fill="#6E56CF"/>
<path opacity="0.36" fill-rule="evenodd" clip-rule="evenodd" d="M195 123H131V122H195V123Z" fill="#6E56CF"/>
<path d="M132 131C136.413 131 138.558 126.044 141.965 121.149C145.408 116.202 151.593 123.138 154.985 127.524C160.292 134.386 160.704 115.898 164.328 113.014C166.948 110.93 168.466 117.272 170.769 118.595C174.168 120.548 176.398 111.802 179.716 111.802C181.912 111.802 183.246 115.941 185.325 115.941C189.381 115.941 188.413 97 194 97" stroke="#6E56CF" stroke-width="1.5" stroke-linecap="round"/>
</g>
</g>
<rect width="326" height="168" transform="translate(0 136)" fill="url(#paint3_linear_10609_3335)"/>
<defs>
<filter id="filter0_b_10609_3335" x="111" y="76" width="104" height="208" filterUnits="userSpaceOnUse" color-interpolation-filters="sRGB">
<feFlood flood-opacity="0" result="BackgroundImageFix"/>
<feGaussianBlur in="BackgroundImageFix" stdDeviation="6"/>
<feComposite in2="SourceAlpha" operator="in" result="effect1_backgroundBlur_10609_3335"/>
<feBlend mode="normal" in="SourceGraphic" in2="effect1_backgroundBlur_10609_3335" result="shape"/>
</filter>
<radialGradient id="paint0_radial_10609_3335" cx="0" cy="0" r="1" gradientUnits="userSpaceOnUse" gradientTransform="translate(163 150) rotate(90) scale(150 108)">
<stop stop-color="#261958"/>
<stop offset="1" stop-color="#1A1B1D" stop-opacity="0"/>
</radialGradient>
<linearGradient id="paint1_linear_10609_3335" x1="41.5" y1="63" x2="41.5001" y2="303" gradientUnits="userSpaceOnUse">
<stop offset="0.05" stop-color="#1A1B1D"/>
<stop offset="0.15" stop-color="#222326"/>
</linearGradient>
<linearGradient id="paint2_linear_10609_3335" x1="286.5" y1="63" x2="286.5" y2="303" gradientUnits="userSpaceOnUse">
<stop offset="0.05" stop-color="#1A1B1D"/>
<stop offset="0.15" stop-color="#222326"/>
</linearGradient>
<linearGradient id="paint3_linear_10609_3335" x1="163" y1="0" x2="163" y2="168" gradientUnits="userSpaceOnUse">
<stop stop-color="#1A1B1D" stop-opacity="0"/>
<stop offset="0.724359" stop-color="#1A1B1D"/>
</linearGradient>
<clipPath id="clip0_10609_3335">
<rect width="64" height="36" fill="white" transform="translate(131 96)"/>
</clipPath>
</defs>
</svg>
